X:1
T:Dan Doo
M:2/4
L:1/16
K:F
 C2 CC| C2F2 F4| F2F2 F2F2| F6 F2| C4 C2 CC| C2F2 F4| F2F2 F4| c4 c2 BB|\
 A2 c4 c2| dd d2c2 cc| BB B2F2 FF| A A3 F F2 G| AG F6| F3 FF DC C|\
 D2 F6| F4 F2 CC| D2 F6|
